exports/total-number-of-deaths-by-cause_v1_850x600.svg

<svg xmlns="http://www.w3.org/2000/svg" version="1.1" style="background-color:#fff;-webkit-font-smoothing:antialiased" width="850" height="600" font-family="'Helvetica Neue',Helvetica,Arial,sans-serif" font-size="18" text-rendering="optimizeLegibility"><g class="ChartTab"><g class="HeaderView"><g opacity=".8" transform="matrix(.31 0 0 .31 770 15)"><a xmlns:xlink="http://www.w3.org/1999/xlink" xlink:href="https://ourworldindata.org" target="_blank"><g><path fill="#1B2543" d="M0 0h211.2v130.1H0z"/><path fill="#E63912" d="M0 112.2h211.2v17.9H0z"/><g><path fill="none" d="M1.2 12.3h210.2v99.2H1.2z"/><path fill="#FFF" d="M37.8 32.2c0 12.7-7.7 19.4-17.1 19.4-9.7 0-16.6-7.5-16.6-18.7 0-11.7 7.3-19.3 17.1-19.3 10.1.1 16.6 7.7 16.6 18.6zm-28.6.6c0 7.9 4.3 14.9 11.8 14.9 7.5 0 11.8-6.9 11.8-15.3 0-7.3-3.8-14.9-11.8-14.9-7.9 0-11.8 7.3-11.8 15.3zM62.7 43.8c0 2.7.1 5.1.2 7.2h-4.3l-.3-4.3h-.1c-1.3 2.1-4 4.9-8.8 4.9-4.2 0-9.1-2.3-9.1-11.6V24.6h4.8v14.6c0 5 1.5 8.4 5.9 8.4 3.2 0 5.5-2.2 6.3-4.4.3-.7.4-1.6.4-2.5V24.6h4.8v19.2zM67.3 32.8c0-3.1-.1-5.8-.2-8.2h4.2l.2 5.2h.2c1.2-3.5 4.1-5.8 7.3-5.8.5 0 .9.1 1.4.2v4.5c-.5-.1-1-.2-1.6-.2-3.4 0-5.8 2.6-6.5 6.2-.1.7-.2 1.4-.2 2.2V51h-4.8V32.8zM95.4 51L86 14.2h5l4.4 18.6c1.1 4.6 2.1 9.2 2.7 12.7h.1c.6-3.7 1.8-8 3-12.8l4.9-18.5h5l4.5 18.7c1 4.4 2 8.7 2.6 12.6h.1c.8-4 1.8-8.1 3-12.7l4.9-18.5h4.9L120.6 51h-5L111 31.9c-1.1-4.7-1.9-8.3-2.4-12h-.1c-.7 3.7-1.5 7.3-2.8 12L100.4 51h-5zM154.9 37.6c0 9.8-6.8 14-13.2 14-7.2 0-12.7-5.2-12.7-13.6 0-8.8 5.8-14 13.1-14 7.7 0 12.8 5.5 12.8 13.6zm-21 .3c0 5.8 3.3 10.1 8 10.1 4.6 0 8-4.3 8-10.3 0-4.5-2.2-10.1-7.9-10.1s-8.1 5.2-8.1 10.3zM158.2 32.8c0-3.1-.1-5.8-.2-8.2h4.2l.2 5.2h.2c1.2-3.5 4.1-5.8 7.3-5.8.5 0 .9.1 1.4.2v4.5c-.5-.1-1-.2-1.6-.2-3.4 0-5.8 2.6-6.5 6.2-.1.7-.2 1.4-.2 2.2V51h-4.8V32.8zM173.5 12.3h4.8V51h-4.8V12.3zM206.5 12.3v31.9c0 2.3.1 5 .2 6.8h-4.3l-.2-4.6h-.2c-1.5 2.9-4.7 5.2-9 5.2-6.4 0-11.3-5.4-11.3-13.4-.1-8.8 5.4-14.2 11.9-14.2 4 0 6.8 1.9 8 4h.1V12.3h4.8zm-4.8 23.1c0-.6-.1-1.4-.2-2a7 7 0 00-6.9-5.6c-5 0-7.9 4.4-7.9 10.2 0 5.3 2.6 9.8 7.8 9.8 3.2 0 6.2-2.1 7.1-5.7.2-.7.2-1.3.2-2.1v-4.6zM42.8 64c.1 1.6-1.1 2.9-3.1 2.9-1.7 0-2.9-1.3-2.9-2.9 0-1.7 1.3-3 3-3 1.9 0 3 1.3 3 3zm-5.4 33.8V71.4h4.8v26.4h-4.8zM47.5 78.6c0-2.7-.1-5-.2-7.1h4.3l.3 4.4h.1c1.3-2.5 4.4-5 8.8-5 3.7 0 9.4 2.2 9.4 11.2v15.8h-4.8V82.6c0-4.3-1.6-7.8-6.1-7.8-3.2 0-5.6 2.2-6.5 4.9-.2.6-.3 1.4-.3 2.2v15.9h-4.8V78.6zM84 61.6c2.9-.4 6.3-.8 10.1-.8 6.8 0 11.7 1.6 14.9 4.6 3.3 3 5.2 7.3 5.2 13.2 0 6-1.9 10.9-5.3 14.3-3.4 3.4-9.1 5.3-16.3 5.3-3.4 0-6.2-.2-8.6-.4V61.6zm4.8 32.5c1.2.2 3 .3 4.8.3 10.2 0 15.7-5.7 15.7-15.6.1-8.7-4.9-14.2-14.9-14.2-2.5 0-4.3.2-5.6.5v29zM132.1 97.8l-.4-3.3h-.2a9.79 9.79 0 01-8.1 3.9c-5.4 0-8.1-3.8-8.1-7.6 0-6.4 5.7-9.9 15.9-9.8v-.5c0-2.2-.6-6.1-6-6.1-2.5 0-5 .8-6.9 2l-1.1-3.2c2.2-1.4 5.4-2.3 8.7-2.3 8.1 0 10.1 5.5 10.1 10.8v9.9c0 2.3.1 4.5.4 6.3h-4.3zm-.7-13.4c-5.3-.1-11.2.8-11.2 5.9 0 3.1 2.1 4.6 4.5 4.6 3.4 0 5.6-2.2 6.4-4.4.2-.5.3-1 .3-1.5v-4.6zM146.6 63.9v7.6h6.9v3.7h-6.9v14.2c0 3.3.9 5.1 3.6 5.1 1.3 0 2.2-.2 2.8-.3l.2 3.6c-.9.4-2.4.7-4.3.7-2.2 0-4-.7-5.2-2-1.4-1.4-1.9-3.8-1.9-6.9V75.1h-4.1v-3.7h4.1v-6.3l4.8-1.2zM171.4 97.8l-.4-3.3h-.2a9.79 9.79 0 01-8.1 3.9c-5.4 0-8.1-3.8-8.1-7.6 0-6.4 5.7-9.9 15.9-9.8v-.5c0-2.2-.6-6.1-6-6.1-2.5 0-5 .8-6.9 2l-1.1-3.2c2.2-1.4 5.4-2.3 8.7-2.3 8.1 0 10.1 5.5 10.1 10.8v9.9c0 2.3.1 4.5.4 6.3h-4.3zm-.7-13.4c-5.3-.1-11.2.8-11.2 5.9 0 3.1 2.1 4.6 4.5 4.6 3.4 0 5.6-2.2 6.4-4.4.2-.5.3-1 .3-1.5v-4.6z"/></g></g></a></g><a href="https://ourworldindata.org/grapher/total-number-of-deaths-by-cause" target="_blank"><text font-size="27" x="15" y="36.6" fill="#555"><tspan x="15" y="36.6">Total number of deaths by cause, World</tspan></text></a><text font-size="14.4" x="15" y="55.5" fill="#666"><tspan x="15" y="55.52">Total annual number of deaths by high-level cause category. Non-communicable diseases (NCDs) include</tspan><tspan x="15" y="71.36">cardiovascular disease, cancers, diabetes and respiratory disease. Injuries include road accidents, homicides and</tspan><tspan x="15" y="87.2">conflict, drowning, fire-related accidents, natural disasters and self-harm.</tspan></text></g><g class="StackedArea"><defs><clipPath id="a"><path d="M88.53 0h820v894.2h-820z"/></clipPath></defs><g class="AxisBoxView"><g class="HorizontalAxis" fill="#666" text-anchor="middle" font-size="16.2"><text x="88.5" y="556.5">1990</text><text x="204.3" y="556.5">1995</text><text x="320.1" y="556.5">2000</text><text x="436" y="556.5">2005</text><text x="551.8" y="556.5">2010</text><text x="690.7" y="556.5">2016</text></g><g class="VerticalAxis" fill="#666" dominant-baseline="middle" text-anchor="end" font-size="16.2"><text x="83.53" y="535.3">0</text><text x="83.53" y="457.4">10 million</text><text x="83.53" y="379.6">20 million</text><text x="83.53" y="301.7">30 million</text><text x="83.53" y="223.8">40 million</text><text x="83.53" y="146">50 million</text></g><g class="AxisGridLines"><path stroke="#ccc" d="M88.53 535.3h602.2"/><path stroke="#ddd" stroke-dasharray="3,2" d="M88.53 457.4h602.2M88.53 379.6h602.2M88.53 301.7h602.2M88.53 223.8h602.2M88.53 146h602.2"/></g><g class="AxisGridLines" stroke="#ddd" stroke-dasharray="3,2"><path d="M88.5 535.3V109.4M204.3 535.3V109.4M320.1 535.3V109.4M436 535.3V109.4M551.8 535.3V109.4M667.6 535.3V109.4"/></g></g><g clip-path="url(#a)"><g class="HeightedLegend clickable"><g class="legendMark"><path fill="#ffd53e" d="M695.73 126.15h10v2.5h-10z"/><text font-size="14.4" x="710.7" y="131.7" fill="#333"><tspan x="710.73" y="131.72">Injuries</tspan></text></g><g class="legendMark"><path fill="#ca2628" d="M695.73 185.15h10v2.5h-10z"/><text font-size="14.4" x="710.7" y="167.5" fill="#333"><tspan x="710.73" y="167.47">Communicable,</tspan><tspan x="710.73" y="183.31">maternal, neonatal,</tspan><tspan x="710.73" y="199.15">and nutritional</tspan><tspan x="710.73" y="214.99">diseases</tspan></text></g><g class="legendMark"><path fill="#3360a9" d="M695.73 380.15h10v2.5h-10z"/><text font-size="14.4" x="710.7" y="378" fill="#333"><tspan x="710.73" y="377.97">Non-communicable</tspan><tspan x="710.73" y="393.81">diseases (NCDs)</tspan></text></g></g><g class="Areas"><path d="M88.5 325.5l23.2-3.4 23.1-5.1 23.2-6.6 23.2-5.4 23.1-3.4 23.2-2 23.2-2.2 23.1-3.1 23.2-4.7 23.1-4.1 23.2-3.7 23.2-4.3 23.1-1.6 23.2-1.6 23.2-3.6 23.1-.6 23.2-2.3 23.1-3.7 23.2-3.3 23.2-4.5 23.1-2.7 23.2-4.2 23.1-4.6 23.2-5.4 23.2-5.4 23.1-6.5.03 307.8H88.53" fill="#3360a9" fill-opacity=".7" class="World_0-area"/><path d="M88.5 205.9l23.2-2.6 23.1-4.3 23.2-6.1 23.2-5.1 23.1-3.8 23.2-1.4 23.2-1.5 23.1-2.6 23.2-4.4 23.1-3.9 23.2-3.2 23.2-3.8 23.1-.1 23.2-.2 23.2-2.3 23.1 1.4 23.2-.1 23.1-1.4 23.2-1 23.2-2.2h23.1l23.2-1.2 23.1-1.5 23.2-2.7 23.2-2.4 23.1-4.2v82.2l-23.1 6.5-23.2 5.4-23.2 5.4-23.1 4.6-23.2 4.2-23.1 2.7-23.2 4.5-23.2 3.3-23.1 3.7-23.2 2.3-23.1.6-23.2 3.6-23.2 1.6-23.1 1.6-23.2 4.3-23.2 3.7-23.1 4.1-23.2 4.7-23.1 3.1-23.2 2.2-23.2 2-23.1 3.4-23.2 5.4-23.2 6.6-23.1 5.1-23.2 3.4" fill="#ca2628" fill-opacity=".7" class="World_1-area"/><path d="M88.5 172.9l23.2-3.7 23.1-3.5 23.2-7.1 23.2-9.4 23.1-.2 23.2-1.6 23.2-1.4 23.1-2.9 23.2-5 23.1-3.5 23.2-2.9 23.2-3.9 23.1-.7 23.2-1.8 23.2-1 23.1 2h23.2l23.1-3.1 23.2 1 23.2-3.9 23.1 1.6 23.2-1.1 23.1-1.6 23.2-3 23.2-2.5 23.1-4.3v35.9l-23.1 4.2-23.2 2.4-23.2 2.7-23.1 1.5-23.2 1.2h-23.1l-23.2 2.2-23.2 1-23.1 1.4-23.2.1-23.1-1.4-23.2 2.3-23.2.2-23.1.1-23.2 3.8-23.2 3.2-23.1 3.9-23.2 4.4-23.1 2.6-23.2 1.5-23.2 1.4-23.1 3.8-23.2 5.1-23.2 6.1-23.1 4.3-23.2 2.6" fill="#ffd53e" fill-opacity=".7" class="World_2-area"/><path stroke-linecap="round" d="M88.5 325.5l23.2-3.4 23.1-5.1 23.2-6.6 23.2-5.4 23.1-3.4 23.2-2 23.2-2.2 23.1-3.1 23.2-4.7 23.1-4.1 23.2-3.7 23.2-4.3 23.1-1.6 23.2-1.6 23.2-3.6 23.1-.6 23.2-2.3 23.1-3.7 23.2-3.3 23.2-4.5 23.1-2.7 23.2-4.2 23.1-4.6 23.2-5.4 23.2-5.4 23.1-6.5" stroke="#2B508D" stroke-opacity=".7" stroke-width=".5" fill="none" class="World_0-border"/><path stroke-linecap="round" d="M88.5 205.9l23.2-2.6 23.1-4.3 23.2-6.1 23.2-5.1 23.1-3.8 23.2-1.4 23.2-1.5 23.1-2.6 23.2-4.4 23.1-3.9 23.2-3.2 23.2-3.8 23.1-.1 23.2-.2 23.2-2.3 23.1 1.4 23.2-.1 23.1-1.4 23.2-1 23.2-2.2h23.1l23.2-1.2 23.1-1.5 23.2-2.7 23.2-2.4 23.1-4.2" stroke="#A92021" stroke-opacity=".7" stroke-width=".5" fill="none" class="World_1-border"/><path stroke-linecap="round" d="M88.5 172.9l23.2-3.7 23.1-3.5 23.2-7.1 23.2-9.4 23.1-.2 23.2-1.6 23.2-1.4 23.1-2.9 23.2-5 23.1-3.5 23.2-2.9 23.2-3.9 23.1-.7 23.2-1.8 23.2-1 23.1 2h23.2l23.1-3.1 23.2 1 23.2-3.9 23.1 1.6 23.2-1.1 23.1-1.6 23.2-3 23.2-2.5 23.1-4.3" stroke="#D5B234" stroke-opacity=".7" stroke-width=".5" fill="none" class="World_2-border"/></g></g></g><g class="SourcesFooter" fill="#777"><g class="clickable" fill="#777"><text font-size="12.6" x="15" y="581.6"><tspan x="15" y="581.58">Source: IHME, Global Burden of Disease</tspan></text></g><text font-size="12.6" x="551.2" y="581.6"><tspan x="551.25" y="581.58"><a target="_blank" href="https://ourworldindata.org/causes-of-death/" fill="#777">OurWorldInData.org/causes-of-death/</a> • <a href="http://creativecommons.org/licenses/by-sa/4.0/deed.en_US" target="_blank" fill="#777">CC BY-SA</a></tspan></text></g></g></svg>

<svg xmlns="http://www.w3.org/2000/svg" version="1.1" style="font-family: 'Helvetica Neue', Helvetica, Arial, sans-serif; font-size: 18px; background-color: white; text-rendering: optimizeLegibility; -webkit-font-smoothing: antialiased;" width="850" height="600"><g class="ChartTab"><g class="HeaderView"><g opacity="0.8" transform="translate(770, 15) scale(0.31)"><a xmlns:xlink="http://www.w3.org/1999/xlink" xlink:href="https://ourworldindata.org" target="_blank"><g><rect x="0" y="0" fill="#1B2543" width="211.2" height="130.1"/><rect x="0" y="112.2" fill="#E63912" width="211.2" height="17.9"/><g><rect x="1.2" y="12.3" fill="none" width="210.2" height="99.2"/><path fill="#FFFFFF" d="M37.8,32.2c0,12.7-7.7,19.4-17.1,19.4c-9.7,0-16.6-7.5-16.6-18.7c0-11.7,7.3-19.3,17.1-19.3 C31.3,13.7,37.8,21.3,37.8,32.2z M9.2,32.8c0,7.9,4.3,14.9,11.8,14.9c7.5,0,11.8-6.9,11.8-15.3c0-7.3-3.8-14.9-11.8-14.9 C13.1,17.5,9.2,24.8,9.2,32.8z"/><path fill="#FFFFFF" d="M62.7,43.8c0,2.7,0.1,5.1,0.2,7.2h-4.3l-0.3-4.3h-0.1c-1.3,2.1-4,4.9-8.8,4.9c-4.2,0-9.1-2.3-9.1-11.6 V24.6h4.8v14.6c0,5,1.5,8.4,5.9,8.4c3.2,0,5.5-2.2,6.3-4.4c0.3-0.7,0.4-1.6,0.4-2.5V24.6h4.8V43.8z"/><path fill="#FFFFFF" d="M67.3,32.8c0-3.1-0.1-5.8-0.2-8.2h4.2l0.2,5.2h0.2c1.2-3.5,4.1-5.8,7.3-5.8c0.5,0,0.9,0.1,1.4,0.2v4.5 c-0.5-0.1-1-0.2-1.6-0.2c-3.4,0-5.8,2.6-6.5,6.2c-0.1,0.7-0.2,1.4-0.2,2.2V51h-4.8V32.8z"/><path fill="#FFFFFF" d="M95.4,51l-9.4-36.8h5l4.4,18.6c1.1,4.6,2.1,9.2,2.7,12.7h0.1c0.6-3.7,1.8-8,3-12.8l4.9-18.5h5l4.5,18.7 c1,4.4,2,8.7,2.6,12.6h0.1c0.8-4,1.8-8.1,3-12.7l4.9-18.5h4.9L120.6,51h-5L111,31.9c-1.1-4.7-1.9-8.3-2.4-12h-0.1 c-0.7,3.7-1.5,7.3-2.8,12L100.4,51H95.4z"/><path fill="#FFFFFF" d="M154.9,37.6c0,9.8-6.8,14-13.2,14c-7.2,0-12.7-5.2-12.7-13.6c0-8.8,5.8-14,13.1-14 C149.8,24,154.9,29.5,154.9,37.6z M133.9,37.9c0,5.8,3.3,10.1,8,10.1c4.6,0,8-4.3,8-10.3c0-4.5-2.2-10.1-7.9-10.1 C136.3,27.6,133.9,32.8,133.9,37.9z"/><path fill="#FFFFFF" d="M158.2,32.8c0-3.1-0.1-5.8-0.2-8.2h4.2l0.2,5.2h0.2c1.2-3.5,4.1-5.8,7.3-5.8c0.5,0,0.9,0.1,1.4,0.2v4.5 c-0.5-0.1-1-0.2-1.6-0.2c-3.4,0-5.8,2.6-6.5,6.2c-0.1,0.7-0.2,1.4-0.2,2.2V51h-4.8V32.8z"/><path fill="#FFFFFF" d="M173.5,12.3h4.8V51h-4.8V12.3z"/><path fill="#FFFFFF" d="M206.5,12.3v31.9c0,2.3,0.1,5,0.2,6.8h-4.3l-0.2-4.6H202c-1.5,2.9-4.7,5.2-9,5.2 c-6.4,0-11.3-5.4-11.3-13.4c-0.1-8.8,5.4-14.2,11.9-14.2c4,0,6.8,1.9,8,4h0.1V12.3H206.5z M201.7,35.4c0-0.6-0.1-1.4-0.2-2 c-0.7-3.1-3.3-5.6-6.9-5.6c-5,0-7.9,4.4-7.9,10.2c0,5.3,2.6,9.8,7.8,9.8c3.2,0,6.2-2.1,7.1-5.7c0.2-0.7,0.2-1.3,0.2-2.1V35.4z"/><path fill="#FFFFFF" d="M42.8,64c0.1,1.6-1.1,2.9-3.1,2.9c-1.7,0-2.9-1.3-2.9-2.9c0-1.7,1.3-3,3-3C41.7,61,42.8,62.3,42.8,64z M37.4,97.8V71.4h4.8v26.4H37.4z"/><path fill="#FFFFFF" d="M47.5,78.6c0-2.7-0.1-5-0.2-7.1h4.3l0.3,4.4h0.1c1.3-2.5,4.4-5,8.8-5c3.7,0,9.4,2.2,9.4,11.2v15.8h-4.8 V82.6c0-4.3-1.6-7.8-6.1-7.8c-3.2,0-5.6,2.2-6.5,4.9c-0.2,0.6-0.3,1.4-0.3,2.2v15.9h-4.8V78.6z"/><path fill="#FFFFFF" d="M84,61.6c2.9-0.4,6.3-0.8,10.1-0.8c6.8,0,11.7,1.6,14.9,4.6c3.3,3,5.2,7.3,5.2,13.2c0,6-1.9,10.9-5.3,14.3 c-3.4,3.4-9.1,5.3-16.3,5.3c-3.4,0-6.2-0.2-8.6-0.4V61.6z M88.8,94.1c1.2,0.2,3,0.3,4.8,0.3c10.2,0,15.7-5.7,15.7-15.6 c0.1-8.7-4.9-14.2-14.9-14.2c-2.5,0-4.3,0.2-5.6,0.5V94.1z"/><path fill="#FFFFFF" d="M132.1,97.8l-0.4-3.3h-0.2c-1.5,2.1-4.3,3.9-8.1,3.9c-5.4,0-8.1-3.8-8.1-7.6c0-6.4,5.7-9.9,15.9-9.8v-0.5 c0-2.2-0.6-6.1-6-6.1c-2.5,0-5,0.8-6.9,2l-1.1-3.2c2.2-1.4,5.4-2.3,8.7-2.3c8.1,0,10.1,5.5,10.1,10.8v9.9c0,2.3,0.1,4.5,0.4,6.3 H132.1z M131.4,84.4c-5.3-0.1-11.2,0.8-11.2,5.9c0,3.1,2.1,4.6,4.5,4.6c3.4,0,5.6-2.2,6.4-4.4c0.2-0.5,0.3-1,0.3-1.5V84.4z"/><path fill="#FFFFFF" d="M146.6,63.9v7.6h6.9v3.7h-6.9v14.2c0,3.3,0.9,5.1,3.6,5.1c1.3,0,2.2-0.2,2.8-0.3l0.2,3.6 c-0.9,0.4-2.4,0.7-4.3,0.7c-2.2,0-4-0.7-5.2-2c-1.4-1.4-1.9-3.8-1.9-6.9V75.1h-4.1v-3.7h4.1v-6.3L146.6,63.9z"/><path fill="#FFFFFF" d="M171.4,97.8l-0.4-3.3h-0.2c-1.5,2.1-4.3,3.9-8.1,3.9c-5.4,0-8.1-3.8-8.1-7.6c0-6.4,5.7-9.9,15.9-9.8v-0.5 c0-2.2-0.6-6.1-6-6.1c-2.5,0-5,0.8-6.9,2l-1.1-3.2c2.2-1.4,5.4-2.3,8.7-2.3c8.1,0,10.1,5.5,10.1,10.8v9.9c0,2.3,0.1,4.5,0.4,6.3 H171.4z M170.7,84.4c-5.3-0.1-11.2,0.8-11.2,5.9c0,3.1,2.1,4.6,4.5,4.6c3.4,0,5.6-2.2,6.4-4.4c0.2-0.5,0.3-1,0.3-1.5V84.4z"/></g></g></a></g><a href="https://ourworldindata.org/grapher/total-number-of-deaths-by-cause" target="_blank"><text font-size="27.00" x="15.0" y="36.6" fill="#555"><tspan x="15" y="36.6">Total number of deaths by cause, World</tspan></text></a><text font-size="14.40" x="15.0" y="55.5" fill="#666"><tspan x="15" y="55.519999999999996">Total annual number of deaths by high-level cause category. Non-communicable diseases (NCDs) include</tspan><tspan x="15" y="71.36">cardiovascular disease, cancers, diabetes and respiratory disease. Injuries include road accidents, homicides and</tspan><tspan x="15" y="87.2">conflict, drowning, fire-related accidents, natural disasters and self-harm. </tspan></text></g><g class="StackedArea"><defs><clipPath id="boundsClip-1"><rect x="88.526" y="0" width="820" height="894.2"></rect></clipPath></defs><g class="AxisBoxView"><g class="HorizontalAxis"><text x="88.5" y="556.5" fill="#666" text-anchor="middle" font-size="16.2">1990</text><text x="204.3" y="556.5" fill="#666" text-anchor="middle" font-size="16.2">1995</text><text x="320.1" y="556.5" fill="#666" text-anchor="middle" font-size="16.2">2000</text><text x="436" y="556.5" fill="#666" text-anchor="middle" font-size="16.2">2005</text><text x="551.8" y="556.5" fill="#666" text-anchor="middle" font-size="16.2">2010</text><text x="690.7" y="556.5" fill="#666" text-anchor="middle" font-size="16.2">2016</text></g><g class="VerticalAxis"><text x="83.53" y="535.3" fill="#666" dominant-baseline="middle" text-anchor="end" font-size="16.2">0</text><text x="83.53" y="457.4" fill="#666" dominant-baseline="middle" text-anchor="end" font-size="16.2">10 million</text><text x="83.53" y="379.6" fill="#666" dominant-baseline="middle" text-anchor="end" font-size="16.2">20 million</text><text x="83.53" y="301.7" fill="#666" dominant-baseline="middle" text-anchor="end" font-size="16.2">30 million</text><text x="83.53" y="223.8" fill="#666" dominant-baseline="middle" text-anchor="end" font-size="16.2">40 million</text><text x="83.53" y="146" fill="#666" dominant-baseline="middle" text-anchor="end" font-size="16.2">50 million</text></g><g class="AxisGridLines"><line x1="88.53" y1="535.3" x2="690.73" y2="535.3" stroke="#ccc"></line><line x1="88.53" y1="457.4" x2="690.73" y2="457.4" stroke="#ddd" stroke-dasharray="3,2"></line><line x1="88.53" y1="379.6" x2="690.73" y2="379.6" stroke="#ddd" stroke-dasharray="3,2"></line><line x1="88.53" y1="301.7" x2="690.73" y2="301.7" stroke="#ddd" stroke-dasharray="3,2"></line><line x1="88.53" y1="223.8" x2="690.73" y2="223.8" stroke="#ddd" stroke-dasharray="3,2"></line><line x1="88.53" y1="146" x2="690.73" y2="146" stroke="#ddd" stroke-dasharray="3,2"></line></g><g class="AxisGridLines"><line x1="88.5" y1="535.30" x2="88.5" y2="109.40" stroke="#ddd" stroke-dasharray="3,2"></line><line x1="204.3" y1="535.30" x2="204.3" y2="109.40" stroke="#ddd" stroke-dasharray="3,2"></line><line x1="320.1" y1="535.30" x2="320.1" y2="109.40" stroke="#ddd" stroke-dasharray="3,2"></line><line x1="436" y1="535.30" x2="436" y2="109.40" stroke="#ddd" stroke-dasharray="3,2"></line><line x1="551.8" y1="535.30" x2="551.8" y2="109.40" stroke="#ddd" stroke-dasharray="3,2"></line><line x1="667.6" y1="535.30" x2="667.6" y2="109.40" stroke="#ddd" stroke-dasharray="3,2"></line></g></g><g clip-path="url(#boundsClip-1)"><g class="HeightedLegend clickable"><g class="legendMark"><rect x="695.728" y="120.2" width="61.51200000000001" height="14.4" fill="#fff" opacity="0"></rect><rect x="695.728" y="126.15" width="10" height="2.5" fill="#ffd53e"></rect><text font-size="14.40" x="710.7" y="131.7" fill="#333"><tspan x="710.728" y="131.72">Injuries</tspan></text></g><g class="legendMark"><rect x="695.728" y="155.95000000000002" width="138.84000000000003" height="60.9" fill="#fff" opacity="0"></rect><rect x="695.728" y="185.15" width="10" height="2.5" fill="#ca2628"></rect><text font-size="14.40" x="710.7" y="167.5" fill="#333"><tspan x="710.728" y="167.47000000000003">Communicable,</tspan><tspan x="710.728" y="183.31000000000003">maternal, neonatal,</tspan><tspan x="710.728" y="199.15000000000003">and nutritional</tspan><tspan x="710.728" y="214.99000000000004">diseases</tspan></text></g><g class="legendMark"><rect x="695.728" y="366.45" width="139.27200000000002" height="29.900000000000002" fill="#fff" opacity="0"></rect><rect x="695.728" y="380.15" width="10" height="2.5" fill="#3360a9"></rect><text font-size="14.40" x="710.7" y="378.0" fill="#333"><tspan x="710.728" y="377.96999999999997">Non-communicable</tspan><tspan x="710.728" y="393.80999999999995">diseases (NCDs)</tspan></text></g></g><g class="Areas"><rect x="88.526" y="109.4" width="602.202" height="425.9000000000001" opacity="0" fill="rgba(255,255,255,0)"></rect><path stroke-linecap="round" d="M88.5 325.5L111.7 322.1L134.8 317L158 310.4L181.2 305L204.3 301.6L227.5 299.6L250.7 297.4L273.8 294.3L297 289.6L320.1 285.5L343.3 281.8L366.5 277.5L389.6 275.9L412.8 274.3L436 270.7L459.1 270.1L482.3 267.8L505.4 264.1L528.6 260.8L551.8 256.3L574.9 253.6L598.1 249.4L621.2 244.8L644.4 239.4L667.6 234L690.7 227.5L690.728 535.3000000000001L88.526 535.3000000000001" fill="#3360a9" fill-opacity="0.7" class="World_0-area"></path><path stroke-linecap="round" d="M88.5 205.9L111.7 203.3L134.8 199L158 192.9L181.2 187.8L204.3 184L227.5 182.6L250.7 181.1L273.8 178.5L297 174.1L320.1 170.2L343.3 167L366.5 163.2L389.6 163.1L412.8 162.9L436 160.6L459.1 162L482.3 161.9L505.4 160.5L528.6 159.5L551.8 157.3L574.9 157.3L598.1 156.1L621.2 154.6L644.4 151.9L667.6 149.5L690.7 145.3L690.7 227.5L667.6 234L644.4 239.4L621.2 244.8L598.1 249.4L574.9 253.6L551.8 256.3L528.6 260.8L505.4 264.1L482.3 267.8L459.1 270.1L436 270.7L412.8 274.3L389.6 275.9L366.5 277.5L343.3 281.8L320.1 285.5L297 289.6L273.8 294.3L250.7 297.4L227.5 299.6L204.3 301.6L181.2 305L158 310.4L134.8 317L111.7 322.1L88.5 325.5" fill="#ca2628" fill-opacity="0.7" class="World_1-area"></path><path stroke-linecap="round" d="M88.5 172.9L111.7 169.2L134.8 165.7L158 158.6L181.2 149.2L204.3 149L227.5 147.4L250.7 146L273.8 143.1L297 138.1L320.1 134.6L343.3 131.7L366.5 127.8L389.6 127.1L412.8 125.3L436 124.3L459.1 126.3L482.3 126.3L505.4 123.2L528.6 124.2L551.8 120.3L574.9 121.9L598.1 120.8L621.2 119.2L644.4 116.2L667.6 113.7L690.7 109.4L690.7 145.3L667.6 149.5L644.4 151.9L621.2 154.6L598.1 156.1L574.9 157.3L551.8 157.3L528.6 159.5L505.4 160.5L482.3 161.9L459.1 162L436 160.6L412.8 162.9L389.6 163.1L366.5 163.2L343.3 167L320.1 170.2L297 174.1L273.8 178.5L250.7 181.1L227.5 182.6L204.3 184L181.2 187.8L158 192.9L134.8 199L111.7 203.3L88.5 205.9" fill="#ffd53e" fill-opacity="0.7" class="World_2-area"></path><path stroke-linecap="round" d="M88.5 325.5L111.7 322.1L134.8 317L158 310.4L181.2 305L204.3 301.6L227.5 299.6L250.7 297.4L273.8 294.3L297 289.6L320.1 285.5L343.3 281.8L366.5 277.5L389.6 275.9L412.8 274.3L436 270.7L459.1 270.1L482.3 267.8L505.4 264.1L528.6 260.8L551.8 256.3L574.9 253.6L598.1 249.4L621.2 244.8L644.4 239.4L667.6 234L690.7 227.5" stroke="rgb(43, 80, 141)" stroke-opacity="0.7" stroke-width="0.5" fill="none" class="World_0-border"></path><path stroke-linecap="round" d="M88.5 205.9L111.7 203.3L134.8 199L158 192.9L181.2 187.8L204.3 184L227.5 182.6L250.7 181.1L273.8 178.5L297 174.1L320.1 170.2L343.3 167L366.5 163.2L389.6 163.1L412.8 162.9L436 160.6L459.1 162L482.3 161.9L505.4 160.5L528.6 159.5L551.8 157.3L574.9 157.3L598.1 156.1L621.2 154.6L644.4 151.9L667.6 149.5L690.7 145.3" stroke="rgb(169, 32, 33)" stroke-opacity="0.7" stroke-width="0.5" fill="none" class="World_1-border"></path><path stroke-linecap="round" d="M88.5 172.9L111.7 169.2L134.8 165.7L158 158.6L181.2 149.2L204.3 149L227.5 147.4L250.7 146L273.8 143.1L297 138.1L320.1 134.6L343.3 131.7L366.5 127.8L389.6 127.1L412.8 125.3L436 124.3L459.1 126.3L482.3 126.3L505.4 123.2L528.6 124.2L551.8 120.3L574.9 121.9L598.1 120.8L621.2 119.2L644.4 116.2L667.6 113.7L690.7 109.4" stroke="rgb(213, 178, 52)" stroke-opacity="0.7" stroke-width="0.5" fill="none" class="World_2-border"></path></g></g></g><g style="fill: #777;" class="SourcesFooter"><g style="fill: #777;" class="clickable"><text font-size="12.60" x="15.0" y="581.6"><tspan x="15" y="581.58">Source: IHME, Global Burden of Disease</tspan></text></g><text font-size="12.60" x="551.2" y="581.6"><tspan x="551.248" y="581.58"><a target='_blank' style='fill: #777;' href='https://ourworldindata.org/causes-of-death/'>OurWorldInData.org/causes-of-death/</a> • <a style="fill: #777;" href="http://creativecommons.org/licenses/by-sa/4.0/deed.en_US" target="_blank">CC BY-SA</a></tspan></text></g></g></svg>
